X:2
T:Cameronian Reel, The [1]
R:reel
S:Mike Rafferty
D:Mary Bergin: Feadoga Stain 2
D:Out and About, Cherish the Ladies
Z:Lesl & id:hn-reel-32
M:C|
K:D
d3B|:A2FA DAFA|GFEF GBdB|A2FA DFAF|GBAG FddB|
A{B}AFA DAFA|GE~E2 G~G2B|A2FA DFAF|GBAG FddB:||
|:Addc d3A|Bdef gfed|=cAea faeA|(3Bcd ef gfe2|
faea fae2|faeA defg|azge fdeB|dBAG FDD2:||

